src/assets/icons/reset.svg

<svg xmlns="http://www.w3.org/2000/svg" style="isolation:isolate" viewBox="301.08 228.032 11.426 13.732" width="11.426" height="13.732"><path d="M306.44 230.349a5.688 5.688 0 0 0-3.682 1.667 5.661 5.661 0 0 0-1.678 4.035c0 1.519.602 2.96 1.678 4.036a5.688 5.688 0 0 0 4.035 1.677 5.664 5.664 0 0 0 4.036-1.677 5.69 5.69 0 0 0 1.677-4.036c0-1.519-1.017-1.79-1.582-1.58-.566.21-.792.866-.792 1.58a3.29 3.29 0 0 1-.981 2.358 3.29 3.29 0 0 1-2.358.981 3.29 3.29 0 0 1-2.358-.981 3.29 3.29 0 0 1-.981-2.358c0-.886.348-1.741.981-2.358a3.28 3.28 0 0 1 2.005-.963v2.414l2.371-1.778 2.37-1.778-2.37-1.778-2.371-1.778v2.317z"/></svg>

<?xml version="1.0" standalone="no"?><!-- Generator: Gravit.io --><svg xmlns="http://www.w3.org/2000/svg" xmlns:xlink="http://www.w3.org/1999/xlink" style="isolation:isolate" viewBox="301.08 228.032 11.426 13.732" width="11.426" height="13.732"><path d=" M 306.44 230.349 C 305.052 230.435 303.75 231.023 302.758 232.016 C 301.682 233.076 301.08 234.532 301.08 236.051 L 301.08 236.051 C 301.08 237.57 301.682 239.011 302.758 240.087 C 303.834 241.163 305.274 241.764 306.793 241.764 C 308.312 241.764 309.768 241.163 310.829 240.087 C 311.905 239.011 312.506 237.57 312.506 236.051 C 312.506 234.532 311.489 234.261 310.924 234.471 C 310.358 234.681 310.132 235.337 310.132 236.051 C 310.132 236.937 309.784 237.792 309.151 238.409 C 308.534 239.042 307.679 239.39 306.793 239.39 C 305.907 239.39 305.052 239.042 304.435 238.409 C 303.802 237.792 303.454 236.937 303.454 236.051 L 303.454 236.051 C 303.454 235.165 303.802 234.31 304.435 233.693 C 304.97 233.145 305.683 232.81 306.44 232.73 L 306.44 235.144 L 308.811 233.366 L 311.181 231.588 L 308.811 229.81 L 306.44 228.032 L 306.44 230.349 Z " id="Path" fill="rgb(120,26,174)"/></svg>
